X:81
T:Frog of Mine
M:2/4
Q:1/4=100
L:1/8
K:D
%%MIDI channel 1
%%MIDI program 72
%%MIDI transpose 8
%%MIDI grace 1/8
%%MIDI ratio 3 1
f|af/f/ af/f/|af/f/ af|eB/B/ eB/B/|e4|AA ce|gg ab|f4-|f2 zf|af/f/ af/f/|af/f/ af|
eB/B/ eB/B/|eB Be|AA ce|gg fe|d4-|d2 z::f/g/|aa ^ga|ba gf|e>^d eg|
B4|gg fg|ag fe|d>c df|A3 f/g/|aa ^ga|ba gf|e>^d eg|B4|AA ce|gg fe|d4-|d2 z:|

